!!!COM: Saint-Saens, Camille
!!!CNT: Francais
!!!TXO: Francais
!!!OTL: Aimons~Nous
!!!LYR: Th. de Banville
!!!ENC: Jacob Pegg
!!!YOR: Huit melodies : for high voice
!!!YOR: Huntsville, TX: Recital Publications, 1982 
!!!ODT: 1892/
!!NB: Vocal melody and text only encoded.
!!NB: First instance of melodic material only encoded.
**kern	**silbe
*clef G2	*
*k[b-e-a-d-g-]	*
*M4/4	*
!!created: 3/2/04 12:11 AM
!!proofed and posted: 3/2/04 11:27 AM
!!edit time: 42 min.
=1	=1
2r	.
4r	.
{8dd-	{Ai-
8dd-	-mons~
=2	=2
2.cc	~nous
8cc	et
8cc	dor-
=3	=3
[2cc	-mons
8cc]}	|}
8r	.
{8cc	{Sans
8cc	son-
=4	=4
4.b--	-ger
8b--	au
4a-	res-
8g-	-te
8g-	du
=5	=5
2a-	mon-
4a-}	-de!}
4r	.
=6	=6
8r	.
{16a-	{Ni
16b-	le
8cc	flot
16b-	de
16a-	la
4dd-	mer,
(12dd-	ni
12cc	l'ou-
12b-)	-ra-
=7	=7
(12ff	-gan
12ee-	|
12dd-)	des
[2cc	monts
8cc]}	|}
8r	.
=8	=8
4r	.
8r	.
{8cc	{Tant
8dd-	que
8ee-	nous
8ff	nous
8ggn	ai-
=9	=9
8aa-}	-mons}
{8ggn	{Ne
8ff	cour-
8ee-	-be-
8dd-	-ra
8cc	ta
8b-	te^-
8a-	-te
=10	=10
(2ee-	blon-
2b-)	|
=11	=11
4a-}	-de,}
4r	.
2r	.
=12	=12
{4.dd-	{Car
8ee-	l'A-
2cc-	-mour
=13	=13
4.b--	est
8cc-	plus
2a-	fort
=14	=14
4.dd-	Que
8ee-	les
2cc-	dieux
=15	=15
4.b--	et
8cc-	la
[4a-	Mort!
8a-]}	|}
8r	.
=16	=16
{4.a-	{Car
8dd-	l'A-
[2gg-	-mour
=17	=17
8gg-]	|
8ff	|
8gg-	est
8aa-	plus
4b-	fort
8cc	Que
8dd-	les
=18	=18
2ff	Dieux
4.ee-	et
8ff	la
=19	=19
[2dd-	Mort!
4dd-]}	|}
4r	.
!! previously stated melodic material until
=28	=28
8r	.
{8a-	{Le
[4cc	vent
8cc]	|
8r	.
12cc	qui
12b-	jus-
12a-	-qu'a\
=29	=29
4dd-	terre
12dd-	in-
12cc	-cli-
12b-	-ne
12ff	la
12ee-	|
12dd-	fo^-
4cc}	-ret,}
=30	=30
4r	.
{8cc	{En
8dd-	pas-
4ee-	-sant
8ff	n'o-
8ggn	-se-
=31	=31
[4aa-	-rait
(6aa-]	|
12ggn)	jou-
12ff	-er
12ee-	a-
12dd-	-vec
12cc	ta
12b-	che-
12a-	-ve-
=32	=32
(2ee-	-lu-
2b-)	|
=33	=33
4a-}	-re,}
4r	.
2r	.
=34	=34
2r	.
{2cc-	{Tant
=35	=35
8b--	que
8b--	tu
8b--	ca-
8cc-	-che-
[2a-	-ras
=36	=36
8a-]}	|}
8r	.
{4a-	{Ta
2cc-	te^te
=37	=37
4b--	en-
8b--	-tre
8cc-	mes
[2a-	bras!
=38	=38
8a-]}	|}
8r	.
4r	.
{2gg-	{Tant
=39	=39
8gg-	que
8ff	tu
8gg-	ca-
8aa-	-che-
4b-	-ras
8cc	Ta
8dd-	|
=40	=40
2ff	te^te
4ee-	en-
8ee-	-tre
8ff	mes
=41	=41
[2dd-	bras!
4dd-]}	|}
4r	.
*-	*-
